X:1
T:Title
%%score { ( 1 3 ) | ( 2 4 ) }
L:1/8
M:4/4
K:Ab
V:1 treble nm="Grand Piano"
V:3 treble 
V:2 bass 
V:4 bass 
V:1
 z4 z2[Q:1/4=106] E2 | A3 B c2 A2 | [FB]2 [FA]2 [DF]2 [FA]2 | E2 A2 G2 A2 | [GB]6 E2 | A3 B c2 A2 | %6
 [FB]2 [FA]2 [A,DF]2 [FAd]2 | [EAc]3 [EA] [DGB]3 [DEG] |[M:3/4] [A,CEA]6 |[M:1/4] E2 | %10
[M:4/4] B3 =A B2 E2 | c3 _c =c2 d2 | e3 c A2 c2 | B6 z2 | A3 B c2 [Ac]2 | %15
[M:9/8] [Ad]2 [Ae]- [Ae] [Af]2- [Af] [FAd]2 | %16
[M:11/8] [EAc]-[EAc]- [EAc]2- [EAc]/[CEA][DGB]/-[DGB]- [DGB]3 [DEG] |[M:3/4] [A,CEA]6 |] %18
V:2
 z4 z2 E,2 | [A,CE]3[K:treble] [A,DE] [A,EA]2[K:bass] [A,CE]2 | [D,D]2 [D,D]2 [D,A,]2 [D,D]2 | %3
 [A,C]2 [A,CE]2 [B,DE]2 [A,CE]2 | [E,E]6[K:treble] [G,D]2 | [A,CE]3 [A,DE] [A,EA]2 [A,CE]2 | %6
 [D,D]2 [D,D]2 D,2 D,2 | E,3 E, E,3 E, |[M:3/4] A,,6 |[M:1/4] E,2 | %10
[M:4/4] [E,G,D]3 [E,_G,C] [E,=G,D]2 [E,G,D]2 | [A,E]3 [A,=D] [A,E]2 [A,B,E]2 | %12
 [A,CA]3 [A,EA] [A,CE]2 [A,EA]2 | [EG]2 =D2[K:bass] [E,E]2 [G,_D]2 | %14
 [A,CE]3 [A,DE] [A,EA]2[K:bass] [_G,E]2 |[M:9/8] [F,D]2 [F,C]- [F,C] [D,D]2- [D,D] D,2 | %16
[M:11/8] E,-E,- E,2- E,/E,E,/-E,- E,3 E, |[M:3/4] A,,6 |] %18
V:3
 x8 | x8 | x8 | x8 | x8 | x8 | x8 | x8 |[M:3/4] x6 |[M:1/4] x2 |[M:4/4] x8 | x8 | x8 | %13
 z2 A2 G2 E2 | x8 |[M:9/8] x9 |[M:11/8] x11 |[M:3/4] x6 |] %18
V:4
 x8 | x3[K:treble] x3[K:bass] x2 | x8 | x8 | x6[K:treble] x2 | x8 | x8 | x8 |[M:3/4] x6 | %9
[M:1/4] x2 |[M:4/4] x8 | x8 | x8 | B,4[K:bass] z4 | x6[K:bass] x2 |[M:9/8] x9 |[M:11/8] x11 | %17
[M:3/4] x6 |] %18

